packages/foundations/assets/icons/functional/images/business & payment/shopping_basket_disabled_12.svg

<svg width="12" height="12" viewBox="0 0 12 12" fill="none" xmlns="http://www.w3.org/2000/svg">
<g clip-path="url(#clip0_231_134)">
<path fill-rule="evenodd" clip-rule="evenodd" d="M5.98245 1.49829C6.95545 1.49829 7.72945 1.98829 8.12045 2.73129L8.87745 1.97429C8.99119 1.86831 9.14163 1.81061 9.29707 1.81335C9.45251 1.81609 9.60082 1.87906 9.71075 1.98899C9.82068 2.09892 9.88365 2.24723 9.88639 2.40267C9.88914 2.55811 9.83144 2.70855 9.72545 2.82229C7.22645 5.32329 4.72645 7.82329 2.22545 10.3223C2.16994 10.3788 2.10379 10.4237 2.03082 10.4545C1.95785 10.4853 1.8795 10.5014 1.8003 10.5017C1.7211 10.5021 1.64261 10.4868 1.56935 10.4567C1.4961 10.4265 1.42953 10.3822 1.3735 10.3263C1.31746 10.2703 1.27306 10.2038 1.24285 10.1305C1.21265 10.0573 1.19724 9.97886 1.19751 9.89966C1.19779 9.82045 1.21374 9.74209 1.24445 9.66908C1.27517 9.59608 1.32003 9.52987 1.37645 9.47429C1.59845 9.24929 1.82145 9.02629 2.04645 8.80429L1.21245 4.61829C1.19661 4.53659 1.19779 4.45251 1.21593 4.37129C1.23406 4.29007 1.26876 4.21346 1.31784 4.14626C1.36693 4.07906 1.42935 4.02271 1.50121 3.98073C1.57306 3.93875 1.65281 3.91205 1.73545 3.90229L1.80545 3.89829H3.60145C3.60145 2.56429 4.57945 1.49829 5.98245 1.49829ZM10.3295 3.91329C10.5935 3.97329 10.8655 4.24629 10.7895 4.61829C10.4795 6.21529 10.1675 7.81229 9.85445 9.40929C9.82532 9.54669 9.75018 9.67004 9.64145 9.75895C9.53272 9.84787 9.3969 9.89702 9.25645 9.89829H4.34145L5.54345 8.69829H8.76945L9.53645 4.70629L10.3295 3.91329ZM5.75245 5.09729L2.54145 5.09829L3.07045 7.77929L5.75145 5.09829L5.75245 5.09729ZM6.00145 2.69829C5.28745 2.69829 4.84845 3.14129 4.81045 3.80229L4.80745 3.89829H6.95145L7.18145 3.66829C7.09145 3.09429 6.64845 2.69829 6.00145 2.69829Z" fill="#1A1C1F"/>
</g>
<defs>
<clipPath id="clip0_231_134">
<rect width="12" height="12" fill="white"/>
</clipPath>
</defs>
</svg>

<svg xmlns="http://www.w3.org/2000/svg" width="12" height="12" fill="none"><g clip-path="url(#a)"><path fill="#1A1C1F" fill-rule="evenodd" d="M5.982 1.498c.973 0 1.747.49 2.138 1.233l.757-.757a.6.6 0 0 1 .848.848 13292 13292 0 0 1-7.5 7.5.6.6 0 1 1-.849-.848q.333-.337.67-.67l-.834-4.186a.605.605 0 0 1 .523-.716l.07-.004h1.796c0-1.334.978-2.4 2.381-2.4m4.347 2.415c.264.06.537.333.46.705q-.465 2.395-.935 4.791a.62.62 0 0 1-.598.49H4.341l1.202-1.2H8.77l.767-3.993zM5.752 5.097l-3.21.001.528 2.681L5.751 5.1zm.25-2.399c-.715 0-1.154.443-1.192 1.104l-.003.096h2.144l.23-.23c-.09-.574-.533-.97-1.18-.97" clip-rule="evenodd"/></g><defs><clipPath id="a"><path fill="#fff" d="M0 0h12v12H0z"/></clipPath></defs></svg>
